X:1
T:Burr, CMD
T:Burr, CMD
T:Robert Lowry, 1880
T:Public Domain Courtesy of the Cyber Hymnal™
C:Robert Lowry, 1880
Z:Public Domain
Z:Courtesy of the Cyber Hymnal™
%%score ( 1 2 ) ( 3 4 )
L:1/8
Q:1/4=110
M:4/4
K:G
V:1 treble 
V:2 treble 
V:3 bass 
V:4 bass 
V:1
 [B,D]2 | [DB]3 [DB] [Ec]3 [Ec] | [DB]2 [CA]2 [B,G]3 [DG] | [EG]3 [EG] (AG) [CE]2 | [B,D]6 D2 | %5
 [GB]3 [GB] [Gc]3 [Gc] | [GB]2 [FA]2 G3 G | [EA]2 [Ac]2 [GB]3 [FA] | G6 [GB]2 | %9
 [Gd]3 [Gd] (BA) G2 | G3 [FA] [GB]2 [GB]2 | [Gc]3 [Gd] [Ge]2 [Ac]2 | [GB]4 [FA]2 [GB]2 | %13
 [Gd]3 [Gd] (BA) G2 | [Gc]3 [Gd] !fermata![Ge]2 [Ge]2 | [Gd]2 (cB) [GB]2 [FA]2 | G6 |] %17
V:2
 x2 | x8 | x8 | x4 E2 x2 | x6 D2 | x8 | x4 G3 G | x8 | G6 x2 | x4 G2 G2 | G3 x5 | x8 | x8 | %13
 x4 G2 G2 | x8 | x2 G2 x4 | G6 |] %17
V:3
 G,2 | G,3 G, G,3 G, | G,2 [D,F,]2 [G,,G,]3 [B,,G,] | [C,G,]3 [C,G,] [C,G,]2 [C,G,]2 | %4
 [G,,G,]6 [G,B,]2 | [G,D]3 [G,D] [G,E]3 [G,E] | [G,D]2 [D,C]2 [E,B,]3 [E,B,] | %7
 [C,C]2 [A,,E]2 [D,D]3 [D,C] | [G,,B,]6 [G,D]2 | [G,B,]3 [G,B,] (DC) [G,B,]2 | %10
 [B,D]3 [A,D] [G,D]2 [=F,D]2 | [E,C]3 [D,B,] [C,C]2 [A,,E]2 | [D,D]6 [G,D]2 | %13
 [G,B,]3 [G,B,] (DC) [G,B,]2 | [E,C]3 [D,B,] !fermata![C,C]2 [C,C]2 | %15
 [B,,D]2 [C,E]2 [D,D]2 [D,C]2 | [G,,B,]6 |] %17
V:4
 G,2 | G,3 G, G,3 G, | G,2 x6 | x8 | x8 | x8 | x8 | x8 | x8 | x4 G,2 x2 | x8 | x8 | x8 | %13
 x4 G,2 x2 | x8 | x8 | x6 |] %17

